!!!ONR: No. 30
!! From Harold Courlander, "Haiti Singing"
!! Chapel Hill: University of North Carolina Press, 1939
!! Copyright University of North Carolina Press
!!!ENC: D. Huron
**kern
*clefG2
*k[]
*M2/4
=1-
10r
10cc
10ff
10ff
10ee
=
8ee
8ff
[4gg
=
10gg]
10cc
10ff
10ff
10ff
=
8ee
8gg
8cc
[8cc
=
8cc]
8cc
8ee
8gg
=
6ee
6ee
6ccc
=
8bb
8gg
8ccc
8bb
=
4g
4g
=
10r
10cc
10ff
10ff
10ee
=
8ee
8ff
[4gg
=
10gg]
10cc
10ff
10ff
10ff
=
8ee
8gg
8cc
[8cc
=
8cc]
8cc
8ee
8gg
=
6ee
6ee
6ccc
=
8bb
8gg
8ccc
8bb
=
4g
4g
=
10r
10cc
10ff
10ff
10ee
=
8ee
8ff
[4gg
=
10gg]
10cc
10ff
10ff
10ff
=
8ee
8gg
4cc
=
2cc
==
*-
